X: 17285
T: Hermit From Killarney, The
R: polka
M: 2/4
K: Adorian
|:E|A2 GE|cd e>d|cA GE|G2 cB|
AB/A/ G/F/E|cd e/f/e/d/|cA B^G|A2- A:|
|:d|ea a>g|ed e/f/e/d/|B/^c/d ef|ga/g/ fg|
[1 ea a/b/a/g/|ea e>d|cA B^G|A2- A:|
[2 af g/f/e/g/|fd e/f/e/d/|cA Bc/B/|A2- A||

